game/static/game/image/icons/blockly.svg

<?xml version="1.0" encoding="UTF-8" standalone="no"?>
<!-- Created with Inkscape (http://www.inkscape.org/) -->
<svg
 xmlns:dc="http://purl.org/dc/elements/1.1/"
 xmlns:cc="http://creativecommons.org/ns#"
 xmlns:rdf="http://www.w3.org/1999/02/22-rdf-syntax-ns#"
 xmlns:svg="http://www.w3.org/2000/svg"
 xmlns="http://www.w3.org/2000/svg"
 xmlns:sodipodi="http://sodipodi.sourceforge.net/DTD/sodipodi-0.dtd"
 xmlns:inkscape="http://www.inkscape.org/namespaces/inkscape"
 id="svg2"
 viewBox="0 0 100 100"
 version="1.1"
 inkscape:version="0.48.4 r9939"
 
 
 sodipodi:docname="blockly.svg">
 <defs
 id="defs8" />
 <sodipodi:namedview
 pagecolor="#ffffff"
 bordercolor="#666666"
 borderopacity="1"
 objecttolerance="10"
 gridtolerance="10"
 guidetolerance="10"
 inkscape:pageopacity="0"
 inkscape:pageshadow="2"
 inkscape:window-width="1375"
 inkscape:window-height="876"
 id="namedview6"
 showgrid="false"
 inkscape:zoom="3.337544"
 inkscape:cx="39.238152"
 inkscape:cy="50.212934"
 inkscape:window-x="65"
 inkscape:window-y="204"
 inkscape:window-maximized="1"
 inkscape:current-layer="svg2" />
 <metadata
 id="metadata7">
 <rdf:RDF>
 <cc:Work
 rdf:about="">
 <dc:format>image/svg+xml</dc:format>
 <dc:type
 rdf:resource="http://purl.org/dc/dcmitype/StillImage" />
 <dc:title />
 </cc:Work>
 </rdf:RDF>
 </metadata>
 <path
 style="stroke:none"
 inkscape:connector-curvature="0"
 d="M 25.741687,19.962686 V 37.836949 C 17.826111,33.735615 9.2197848,30.616442 9.2197848,36.638928 v 23.657144 c 0,9.626695 11.4578332,3.244803 16.5219022,0 V 80.048314 H 90.780215 V 60.296072 c -5.064176,3.244803 -16.521902,9.626695 -16.521902,0 V 36.638928 c 0,-6.016334 8.606759,-2.903098 16.521902,1.201583 V 19.966248 H 25.741687 z"
 id="path3012-4" />
</svg>

<svg xmlns:rdf="http://www.w3.org/1999/02/22-rdf-syntax-ns#" xmlns="http://www.w3.org/2000/svg" viewBox="0 0 100 100" version="1.1" xmlns:cc="http://creativecommons.org/ns#" xmlns:dc="http://purl.org/dc/elements/1.1/">
 <path d="m25.742 19.963v17.874c-7.916-4.101-16.522-7.221-16.522-1.198v23.657c0 9.6267 11.458 3.2448 16.522 0v19.752h65.038v-19.752c-5.0642 3.2448-16.522 9.6267-16.522 0v-23.657c0-6.0163 8.6068-2.9031 16.522 1.2016v-17.875h-65.038z"/>
</svg>
